X: 58
M:6/8
L:1/8
K:G
g2g g2e | dBG GBG | g2g g2e |
aba agf | g2g g2e | dBG GAB |
cAc GAB | ded dcB | cdc ABc |
ded dBd | cec GAB | GAB g2e | dBG G3 :|


